X: 17344
T: High Caul Cap
R: polka
M: 2/4
K: Gmajor
|:{g}A>B|{Gdc}d3e {g}f2a2|g3/2f<{g}ed/ {g}f4|{gfg}f2e2 {gef}e2{GdG}e2|{gfg}f2e2 {gef}e2d<B|
{Gdc}d3e {g}f2a2|g3/2f<{g}ed/ {gfg}f2{g}e>f|{Gdc}d2{e}B2 {gBd}B2{e}A>B|{Gdc}d2{e}B2 {gBd}B2:|
|:{gf}g2|{ag}a2g<f {gf}g2f<e|{gfg}f3/2e<{g}de/ {g}f4|{gfg}f2e2 {gef}e2{GdG}e2|{gfg}f2e2 {gef}e2{gf}g2|
{ag}a2g<f {gf}g2f<e|{gfg}f3/2e<{g}de/ {gfg}f2{g}e>f|{Gdc}d2{e}B2 {gBd}B2{e}A>B|{Gdc}d2{e}B2 {gBd}B2:|

